X: 19610
T: January Snows
R: waltz
M: 3/4
K: Edorian
E|:"Em" E2 B B2 c|"Em7" d B3 AG|"Am" A2 B E2 D|"Em" (E3E2) E|
"Em" E2 B B2 c|"D" d d2 e2 d|"A" c A2 A2 G|A4 GF|
"Em" G2 A B2 c|"D" d3 e2 d|"A" c A2 A2 c|"Dm" d4 (3=cBA|
"Em" B E2 G2 A|B d2 "C" =c2 B/A/|"Em" B E2 E2 D|1 "Em" (E3E2) E:|2 "Em" E6||

